static/img/kroki/abb03a82ef7a6e2f14dff67de3dadc2b.svg

<?xml version="1.0" encoding="us-ascii" standalone="no"?><svg xmlns="http://www.w3.org/2000/svg" xmlns:xlink="http://www.w3.org/1999/xlink" contentStyleType="text/css" height="152px" preserveAspectRatio="none" style="width:426px;height:152px;" version="1.1" viewBox="0 0 426 152" width="426px" zoomAndPan="magnify"><defs/><g><!--class azure_machine_learning_feature--><g id="elem_azure_machine_learning_feature"><rect codeLine="23" fill="#3D176E" height="39.7891" id="azure_machine_learning_feature" rx="2.5" ry="2.5" style="stroke:#000D19;stroke-width:0.5;" width="317" x="54.5" y="106.79"/><ellipse cx="69.5" cy="126.6845" fill="#ADD1B2" rx="11" ry="11" style="stroke:#181818;stroke-width:1.0;"/><path d="M72.4688,132.3252 Q71.8906,132.622 71.25,132.7627 Q70.6094,132.9189 69.9063,132.9189 Q67.4063,132.9189 66.0781,131.2783 Q64.7656,129.622 64.7656,126.497 Q64.7656,123.372 66.0781,121.7158 Q67.4063,120.0595 69.9063,120.0595 Q70.6094,120.0595 71.25,120.2158 Q71.9063,120.372 72.4688,120.6689 L72.4688,123.3877 Q71.8438,122.8095 71.25,122.5439 Q70.6563,122.2627 70.0313,122.2627 Q68.6875,122.2627 68,123.3408 Q67.3125,124.4033 67.3125,126.497 Q67.3125,128.5908 68,129.6689 Q68.6875,130.7314 70.0313,130.7314 Q70.6563,130.7314 71.25,130.4658 Q71.8438,130.1845 72.4688,129.6064 L72.4688,132.3252 Z " fill="#000000"/><text fill="#D9B8FF" font-family="Helvetica" font-size="17" lengthAdjust="spacing" textLength="275" x="88.5" y="132.5698">azure_machine_learning_feature</text></g><!--class azure_machine_learning_featureset_version--><g id="elem_azure_machine_learning_featureset_version"><rect codeLine="26" fill="#3D176E" height="39.7891" id="azure_machine_learning_featureset_version" rx="2.5" ry="2.5" style="stroke:#000D19;stroke-width:0.5;" width="412" x="7" y="7"/><ellipse cx="22" cy="26.8945" fill="#ADD1B2" rx="11" ry="11" style="stroke:#181818;stroke-width:1.0;"/><path d="M24.9688,32.5352 Q24.3906,32.832 23.75,32.9727 Q23.1094,33.1289 22.4063,33.1289 Q19.9063,33.1289 18.5781,31.4883 Q17.2656,29.832 17.2656,26.707 Q17.2656,23.582 18.5781,21.9258 Q19.9063,20.2695 22.4063,20.2695 Q23.1094,20.2695 23.75,20.4258 Q24.4063,20.582 24.9688,20.8789 L24.9688,23.5977 Q24.3438,23.0195 23.75,22.7539 Q23.1563,22.4727 22.5313,22.4727 Q21.1875,22.4727 20.5,23.5508 Q19.8125,24.6133 19.8125,26.707 Q19.8125,28.8008 20.5,29.8789 Q21.1875,30.9414 22.5313,30.9414 Q23.1563,30.9414 23.75,30.6758 Q24.3438,30.3945 24.9688,29.8164 L24.9688,32.5352 Z " fill="#000000"/><text fill="#D9B8FF" font-family="Helvetica" font-size="17" lengthAdjust="spacing" textLength="370" x="41" y="32.7798">azure_machine_learning_featureset_version</text></g><!--link azure_machine_learning_featureset_version to azure_machine_learning_feature--><g id="link_azure_machine_learning_featureset_version_azure_machine_learning_feature"><path codeLine="29" d="M213,47.22 C213,64.36 213,83.27 213,100.41 " fill="none" id="azure_machine_learning_featureset_version-to-azure_machine_learning_feature" style="stroke:#1A83AF;stroke-width:2.0;"/><polygon fill="#1A83AF" points="213,106.41,217,97.41,213,101.41,209,97.41,213,106.41" style="stroke:#1A83AF;stroke-width:2.0;"/></g><!--SRC=[ZP91Qy9048Nl-HKBdWLJQJMNGYf8Uv5IUoibJBApPZ7PbTbHqTB_tgHfopPHutNUj_FU6pRN4WMM6pw84iiKoGLkhSq624eH4zdzp1QMn40fKED9MvnRmxt00aeKZrZia7K6RU8rrzdQe7FYnfCU85klo6wDRDOpWN6LX8OzQbQ0Sp4pwNJBw8MHKJfLgassbmx6CfpSOGUp995-aD5e9CEeZVHQNUpzHopr4KNe7srX6JinEnRVrCMKDU65x1JzrSzcV0OfjLc9Ms_sqcGYW_Hllin1sdrDAoYSR-CO2IqVDZZhjC9eAjNa9Fnq3Wwo-dG2Zbl2f8GirmQJ0e5CvPue1Au4yH44drUH3ZdPLNzUMzCykXuVlWt2U3gEv-_3-nwNu0i0]--></g></svg>

<svg xmlns="http://www.w3.org/2000/svg" width="426" height="152" viewBox="0 0 426 152"><rect width="317" height="39.789" x="54.5" y="106.79" fill="#3D176E" rx="2.5" ry="2.5" style="stroke:#000d19;stroke-width:.5"/><circle cx="69.5" cy="126.684" r="11" fill="#ADD1B2" style="stroke:#181818;stroke-width:1"/><path d="M72.469 132.325q-.578.297-1.219.438-.64.156-1.344.156-2.5 0-3.828-1.64-1.312-1.657-1.312-4.782t1.312-4.781q1.328-1.656 3.828-1.656.703 0 1.344.156.656.156 1.219.453v2.719q-.625-.579-1.219-.844-.594-.281-1.219-.281-1.344 0-2.031 1.078-.687 1.062-.687 3.156t.687 3.172q.688 1.062 2.031 1.062.625 0 1.219-.265.594-.281 1.219-.86z"/><text x="88.5" y="132.57" fill="#D9B8FF" font-family="Helvetica" font-size="17" textLength="275">azure_machine_learning_feature</text><rect width="412" height="39.789" x="7" y="7" fill="#3D176E" rx="2.5" ry="2.5" style="stroke:#000d19;stroke-width:.5"/><circle cx="22" cy="26.895" r="11" fill="#ADD1B2" style="stroke:#181818;stroke-width:1"/><path d="M24.969 32.535q-.578.297-1.219.438-.64.156-1.344.156-2.5 0-3.828-1.64-1.312-1.657-1.312-4.782t1.312-4.781q1.328-1.656 3.828-1.656.703 0 1.344.156.656.156 1.219.453v2.719q-.625-.578-1.219-.844-.594-.281-1.219-.281-1.343 0-2.031 1.078-.687 1.062-.687 3.156t.687 3.172q.688 1.062 2.031 1.062.625 0 1.219-.265.594-.281 1.219-.86z"/><text x="41" y="32.78" fill="#D9B8FF" font-family="Helvetica" font-size="17" textLength="370">azure_machine_learning_featureset_version</text><path fill="none" d="M213 47.22v53.19" style="stroke:#1a83af;stroke-width:2"/><path fill="#1A83AF" d="m213 106.41 4-9-4 4-4-4z" style="stroke:#1a83af;stroke-width:2"/></svg>
